svgs/themed_icon_calendar_7.svg

<svg height="192" width="192" xmlns="http://www.w3.org/2000/svg"><path d="M146 30H46c-8.837 0-16 7.163-16 16v100c0 8.837 7.163 16 16 16h75.373a16 16 0 0 0 11.313-4.686l24.628-24.628A16 16 0 0 0 162 121.373V46c0-8.837-7.163-16-16-16Z" stroke="#000" stroke-width="12" fill="none"/><path d="M87.014 120.648c-2.112 0-3.576-.696-4.392-2.088-.816-1.392-.696-3.048.36-4.968l18.936-35.136H82.046c-3.216 0-4.824-1.536-4.824-4.608 0-3.072 1.608-4.608 4.824-4.608h27.432c1.536 0 2.784.408 3.744 1.224 1.008.816 1.512 1.968 1.512 3.456 0 1.296-.192 2.424-.576 3.384-.336.96-.792 1.992-1.368 3.096l-19.44 36.648c-1.296 2.4-3.408 3.6-6.336 3.6Z"/></svg>

<?xml version="1.0" encoding="UTF-8" standalone="no"?><svg xmlns:android="http://schemas.android.com/apk/res/android" height="192" width="192" xmlns="http://www.w3.org/2000/svg">
  <path d="M146,30H46C37.163,30 30,37.163 30,46V146C30,154.837 37.163,162 46,162H121.373C125.616,162 129.686,160.314 132.686,157.314L157.314,132.686C160.314,129.686 162,125.616 162,121.373V46C162,37.163 154.837,30 146,30Z" fill="#000000" fill-opacity="0.0" stroke="#000000" stroke-width="12"/>
  <path d="M87.014,120.648C84.902,120.648 83.438,119.952 82.622,118.56C81.806,117.168 81.926,115.512 82.982,113.592L101.918,78.456H82.046C78.83,78.456 77.222,76.92 77.222,73.848C77.222,70.776 78.83,69.24 82.046,69.24H109.478C111.014,69.24 112.262,69.648 113.222,70.464C114.23,71.28 114.734,72.432 114.734,73.92C114.734,75.216 114.542,76.344 114.158,77.304C113.822,78.264 113.366,79.296 112.79,80.4L93.35,117.048C92.054,119.448 89.942,120.648 87.014,120.648Z" fill="#000000"/>
</svg>
